svgs/thin/hands-holding.svg

<svg xmlns="http://www.w3.org/2000/svg" viewBox="0 0 640 512"><!--! Font Awesome Pro 6.4.0 by @fontawesome - https://fontawesome.com License - https://fontawesome.com/license (Commercial License) Copyright 2023 Fonticons, Inc. --><path d="M48 64c26.5 0 48 21.5 48 48V259c0 14.1 4.8 27.8 13.5 38.7c.9-8.8 4.4-17.5 10.6-24.7c17-19.8 47.2-21 65.6-2.5l92.8 92.8c16.3 16.3 25.5 38.5 25.5 61.6V504c0 4.4-3.6 8-8 8s-8-3.6-8-8V424.8c0-18.9-7.5-37-20.8-50.3l-92.8-92.7c-11.8-11.9-31.3-11.1-42.2 1.6c-9.8 11.4-9.1 28.4 1.5 39.1l0 0 55.9 55.9 0 0 8 8c3.1 3.1 3.1 8.2 0 11.3s-8.2 3.1-11.3 0l-8-8 0 0-55.9-55.9-19.5-19.5C88.2 299.5 80 279.7 80 259V112c0-17.7-14.3-32-32-32s-32 14.3-32 32V344.2c0 23.3 9.3 45.7 25.8 62.2l91.9 91.9c3.1 3.1 3.1 8.2 0 11.3s-8.2 3.1-11.3 0L30.5 417.8C11 398.3 0 371.8 0 344.2V112C0 85.5 21.5 64 48 64zm496 48c0-26.5 21.5-48 48-48s48 21.5 48 48V344.2c0 27.6-11 54-30.5 73.5l-91.9 91.9c-3.1 3.1-8.2 3.1-11.3 0s-3.1-8.2 0-11.3l91.9-91.9C614.7 390 624 367.6 624 344.2V112c0-17.7-14.3-32-32-32s-32 14.3-32 32V259c0 20.7-8.2 40.6-22.9 55.2l-19.5 19.5-55.9 55.9-8 8c-3.1 3.1-8.2 3.1-11.3 0s-3.1-8.2 0-11.3l8-8s0 0 0 0l55.9-55.9s0 0 0 0c10.6-10.6 11.3-27.6 1.5-39.1c-10.9-12.7-30.3-13.5-42.2-1.6l-92.8 92.7c-13.3 13.3-20.8 31.4-20.8 50.3V504c0 4.4-3.6 8-8 8s-8-3.6-8-8V424.8c0-23.1 9.2-45.3 25.5-61.6l92.7-92.8c18.4-18.4 48.7-17.3 65.6 2.5c6.2 7.2 9.7 15.9 10.6 24.7c8.7-10.9 13.5-24.6 13.5-38.7V112z"/></svg>

<svg xmlns="http://www.w3.org/2000/svg" viewBox="0 0 640 512"><!--! Font Awesome Pro 6.3.0 by @fontawesome - https://fontawesome.com License - https://fontawesome.com/license (Commercial License) Copyright 2023 Fonticons, Inc. --><path d="M48 64C74.51 64 96 85.49 96 112V258.1C96 273.1 100.8 286.7 109.5 297.7C110.4 288.8 113.9 280.2 120.1 272.9C137.1 253.1 167.3 251.1 185.7 270.4L278.5 363.2C294.8 379.5 303.1 401.7 303.1 424.8V504C303.1 508.4 300.4 512 295.1 512C291.6 512 287.1 508.4 287.1 504V424.8C287.1 405.9 280.5 387.8 267.2 374.5L174.4 281.7C162.6 269.9 143.1 270.6 132.2 283.4C122.5 294.8 123.1 311.8 133.7 322.4L197.7 386.3C200.8 389.5 200.8 394.5 197.7 397.7C194.5 400.8 189.5 400.8 186.3 397.7L102.9 314.2C88.23 299.5 79.1 279.7 79.1 258.1V112C79.1 94.33 65.67 80 47.1 80C30.33 80 15.1 94.33 15.1 112V344.2C15.1 367.6 25.27 389.1 41.77 406.5L133.7 498.3C136.8 501.5 136.8 506.5 133.7 509.7C130.5 512.8 125.5 512.8 122.3 509.7L30.46 417.8C10.96 398.3 0 371.8 0 344.2V112C0 85.49 21.49 64 48 64V64zM544 112C544 85.49 565.5 64 592 64C618.5 64 640 85.49 640 112V344.2C640 371.8 629 398.3 609.5 417.8L517.7 509.7C514.5 512.8 509.5 512.8 506.3 509.7C503.2 506.5 503.2 501.5 506.3 498.3L598.2 406.5C614.7 389.1 624 367.6 624 344.2V112C624 94.33 609.7 80 592 80C574.3 80 560 94.33 560 112V258.1C560 279.7 551.8 299.5 537.1 314.2L453.7 397.7C450.5 400.8 445.5 400.8 442.3 397.7C439.2 394.5 439.2 389.5 442.3 386.3L450.3 378.3C450.3 378.3 450.3 378.4 450.3 378.3L506.3 322.4C506.3 322.4 506.3 322.4 506.3 322.4C516.9 311.8 517.5 294.8 507.8 283.4C496.9 270.6 477.4 269.9 465.6 281.7L372.8 374.5C359.5 387.8 352 405.9 352 424.8V504C352 508.4 348.4 512 344 512C339.6 512 336 508.4 336 504V424.8C336 401.7 345.2 379.5 361.5 363.2L454.3 270.4C472.7 251.1 502.9 253.1 519.9 272.9C526.1 280.2 529.6 288.8 530.5 297.7C539.2 286.7 544 273.1 544 258.1V112z"/></svg>
